X: 1
T:?
T:"An Dro"
R:An Dro
Z:Lesl Harker
M:C|
K:Em
|:E2B2 B2 Bc|A2AB G4|FGAF G2E2|1 EDEF G2F2:|2 GEFD E4||
|:FGAF G2E2|EDEF G2F2|FGAF G2E2|GEFD E4:||
<end>
<start>
